**harm	**harte	**silbe	**silbe	**rhyme	**timestamp	**phrase	**leadinstrument	**kern
*M4/4	*M4/4	*	*	*	*	*	*	*
*	*	*	*	*	*	*	*	*
*	*	*	*	*	*	*	*	*
*E:	*E:	*	*	*	*	*	*	*E:
*	*	*	*	*	*	*	*	*
*	*	*	*	*	*	*	*	*
1r;	N	.	.	.	0	.	r	1r;
1r;	N	.	.	.	1.123	.	r	1r;
=1	=1	=1	=1	=1	=1	=1	=1	=1
*>Letter>C	*>Letter>C	*>Letter>C	*>Letter>C	*>Letter>C	*>Letter>C	*>Letter>C	*>Letter>C	*>Letter>C
*>Label>Intro	*>Label>Intro	*>Label>Intro	*>Label>Intro	*>Label>Intro	*>Label>Intro	*>Label>Intro	*>Label>Intro	*>Label>Intro
1Im7	E:7	.	.	.	2.673	newline	r	1E 1g# 1b 1dd#
=2	=2	=2	=2	=2	=2	=2	=2	=2
1Im7	E:7	.	.	.	4.15	.	r	1E 1g# 1b 1dd#
=3	=3	=3	=3	=3	=3	=3	=3	=3
1Im7	E:7	.	.	.	5.627	.	r	1E 1g# 1b 1dd#
=4	=4	=4	=4	=4	=4	=4	=4	=4
1Im7	E:7	.	.	.	7.105	.	r	1E 1g# 1b 1dd#
.	.	Well	.	.	.	.	.	.
.	.	she	.	.	.	.	.	.
.	.	was	.	.	.	.	.	.
.	.	just	.	.	.	.	.	.
=5	=5	=5	=5	=5	=5	=5	=5	=5
*>Letter>A	*>Letter>A	*>Letter>A	*>Letter>A	*>Letter>A	*>Letter>A	*>Letter>A	*>Letter>A	*>Letter>A
*>Label>Verse	*>Label>Verse	*>Label>Verse	*>Label>Verse	*>Label>Verse	*>Label>Verse	*>Label>Verse	*>Label>Verse	*>Label>Verse
1Im7	E:7	_	.	.	8.582	newline	voice	1E 1g# 1b 1dd#
.	.	.	.	.	.	.	.	.
.	.	se-	.	.	.	.	.	.
.	.	-ven-	.	.	.	.	.	.
.	.	-teen	.	A	.	.	.	.
=6	=6	=6	=6	=6	=6	=6	=6	=6
1Im7	E:7	_	.	.	10.067	.	voice	1E 1g# 1b 1dd#
.	.	.	.	.	.	.	.	.
.	.	if	.	.	.	.	.	.
.	.	you	.	.	.	.	.	.
=7	=7	=7	=7	=7	=7	=7	=7	=7
1IVm7	A:7	know	.	.	11.551	.	voice	1A 1cc# 1ee 1gg#
.	.	.	.	.	.	.	.	.
.	.	what	.	.	.	.	.	.
.	.	I	.	.	.	.	.	.
.	.	mean	.	A	.	.	.	.
=8	=8	=8	=8	=8	=8	=8	=8	=8
1Im7	E:7	_	.	.	13.036	.	voice	1E 1g# 1b 1dd#
.	.	.	.	.	.	.	.	.
.	.	And	.	.	.	.	.	.
.	.	the	.	.	.	.	.	.
=9	=9	=9	=9	=9	=9	=9	=9	=9
1Im7	E:7	way	.	.	14.521	newline	voice	1E 1g# 1b 1dd#
.	.	she	.	.	.	.	.	.
.	.	looked	.	.	.	.	.	.
.	.	.	.	.	.	.	.	.
.	.	was	.	.	.	.	.	.
.	.	way	.	.	.	.	.	.
=10	=10	=10	=10	=10	=10	=10	=10	=10
1Im7	E:7	_	.	.	16.013	.	voice	1E 1g# 1b 1dd#
.	.	be-	.	.	.	.	.	.
.	.	-yond	.	.	.	.	.	.
.	.	com-	.	.	.	.	.	.
.	.	-pare	.	B	.	.	.	.
=11	=11	=11	=11	=11	=11	=11	=11	=11
1V7	B:7	_	.	.	17.505	.	voice	1B 1dd# 1ff# 1aa
.	.	_	.	.	.	.	.	.
.	.	_	.	.	.	.	.	.
.	.	.	.	.	.	.	.	.
=12	=12	=12	=12	=12	=12	=12	=12	=12
1V7	B:7	.	.	.	18.997	.	voice	1B 1dd# 1ff# 1aa
.	.	.	.	.	.	.	.	.
.	.	So	.	.	.	.	.	.
=13	=13	=13	=13	=13	=13	=13	=13	=13
1Im7	E:7	how	how	.	20.489	newline	voice	1E 1g# 1b 1dd#
.	.	.	.	.	.	.	.	.
.	.	could	could	.	.	.	.	.
.	.	I	I	.	.	.	.	.
.	.	dance	dance	.	.	.	.	.
=14	=14	=14	=14	=14	=14	=14	=14	=14
1Im7b	E:7/3	_	_	.	21.979	.	voice	1e 1G# 1b 1dd#
.	.	.	.	.	.	.	.	.
.	.	with	with	.	.	.	.	.
.	.	a-	a-	.	.	.	.	.
.	.	-no-	-no-	.	.	.	.	.
=15	=15	=15	=15	=15	=15	=15	=15	=15
1IVm7	A:7	_	_	.	23.469	.	voice	1A 1cc# 1ee 1gg#
.	.	-ther	-ther	c	.	.	.	.
.	.	.	.	.	.	.	.	.
.	.	Wooh	Wooh	.	.	.	.	.
=16	=16	=16	=16	=16	=16	=16	=16	=16
1-VI	C:maj	_	_	.	24.959	.	voice	1C 1e 1g
.	.	_	_	.	.	.	.	.
.	.	When	When	.	.	.	.	.
.	.	I	I	.	.	.	.	.
=17	=17	=17	=17	=17	=17	=17	=17	=17
1Im7	E:7	saw	saw	.	26.449	newline	voice	1E 1g# 1b 1dd#
.	.	her	her	C	.	.	.	.
=18	=18	=18	=18	=18	=18	=18	=18	=18
1V7	B:7	stand-	stand-	D	27.947	.	voice	1B 1dd# 1ff# 1aa
.	.	_	_	.	.	.	.	.
.	.	-ing	-ing	.	.	.	.	.
.	.	there	there	B	.	.	.	.
=19	=19	=19	=19	=19	=19	=19	=19	=19
1Im7	E:7	_	_	.	29.445	.	voice	1E 1g# 1b 1dd#
.	.	.	.	.	.	.	.	.
.	.	.	.	.	.	.	.	.
=20	=20	=20	=20	=20	=20	=20	=20	=20
1Im7	E:7	.	.	.	30.942	.	voice	1E 1g# 1b 1dd#
.	.	.	.	.	.	.	.	.
.	.	Well	.	.	.	.	.	.
.	.	she	.	A	.	.	.	.
=21	=21	=21	=21	=21	=21	=21	=21	=21
*>Letter>A	*>Letter>A	*>Letter>A	*>Letter>A	*>Letter>A	*>Letter>A	*>Letter>A	*>Letter>A	*>Letter>A
*>Label>Verse	*>Label>Verse	*>Label>Verse	*>Label>Verse	*>Label>Verse	*>Label>Verse	*>Label>Verse	*>Label>Verse	*>Label>Verse
1Im7	E:7	_	.	.	32.44	newline	voice	1E 1g# 1b 1dd#
.	.	.	.	.	.	.	.	.
.	.	looked	.	.	.	.	.	.
.	.	at	.	.	.	.	.	.
.	.	me	.	A	.	.	.	.
=22	=22	=22	=22	=22	=22	=22	=22	=22
1Im7	E:7	_	.	.	33.919	.	voice	1E 1g# 1b 1dd#
.	.	.	.	.	.	.	.	.
.	.	and	.	.	.	.	.	.
.	.	I	.	.	.	.	.	.
=23	=23	=23	=23	=23	=23	=23	=23	=23
1IVm7	A:7	_	.	.	35.398	.	voice	1A 1cc# 1ee 1gg#
.	.	.	.	.	.	.	.	.
.	.	I	.	.	.	.	.	.
.	.	could	.	.	.	.	.	.
.	.	see	.	A	.	.	.	.
=24	=24	=24	=24	=24	=24	=24	=24	=24
1Im7	E:7	_	.	.	36.877	.	voice	1E 1g# 1b 1dd#
.	.	.	.	.	.	.	.	.
.	.	That	.	.	.	.	.	.
.	.	be-	.	.	.	.	.	.
=25	=25	=25	=25	=25	=25	=25	=25	=25
1Im7	E:7	-fore	.	.	38.356	newline	voice	1E 1g# 1b 1dd#
.	.	to	.	.	.	.	.	.
.	.	long	.	.	.	.	.	.
.	.	.	.	.	.	.	.	.
.	.	I'd	.	.	.	.	.	.
=26	=26	=26	=26	=26	=26	=26	=26	=26
1Im7	E:7	_	.	.	39.847	.	voice	1E 1g# 1b 1dd#
.	.	fall	.	.	.	.	.	.
.	.	in	.	.	.	.	.	.
.	.	love	.	.	.	.	.	.
.	.	with	.	.	.	.	.	.
.	.	her	.	C	.	.	.	.
=27	=27	=27	=27	=27	=27	=27	=27	=27
1V7	B:7	_	.	.	41.338	.	voice	1B 1dd# 1ff# 1aa
.	.	_	.	.	.	.	.	.
.	.	.	.	.	.	.	.	.
=28	=28	=28	=28	=28	=28	=28	=28	=28
1V7	B:7	.	.	.	42.829	.	voice	1B 1dd# 1ff# 1aa
=29	=29	=29	=29	=29	=29	=29	=29	=29
1Im7	E:7	She	She	A	44.319	newline	voice	1E 1g# 1b 1dd#
.	.	.	.	.	.	.	.	.
.	.	would-	would-	.	.	.	.	.
.	.	-n't	-n't	.	.	.	.	.
.	.	dance	dance	D	.	.	.	.
=30	=30	=30	=30	=30	=30	=30	=30	=30
1Im7b	E:7/3	_	_	.	45.794	.	voice	1e 1G# 1b 1dd#
.	.	.	.	.	.	.	.	.
.	.	with	with	.	.	.	.	.
.	.	a-	a-	.	.	.	.	.
.	.	-no-	-no-	.	.	.	.	.
=31	=31	=31	=31	=31	=31	=31	=31	=31
1IVm7	A:7	_	_	.	47.268	.	voice	1A 1cc# 1ee 1gg#
.	.	-ther	-ther	c	.	.	.	.
.	.	.	.	.	.	.	.	.
.	.	Wooh	Wooh	.	.	.	.	.
=32	=32	=32	=32	=32	=32	=32	=32	=32
1-VI	C:maj	_	_	.	48.742	.	voice	1C 1e 1g
.	.	_	_	.	.	.	.	.
.	.	When	When	.	.	.	.	.
.	.	I	I	.	.	.	.	.
=33	=33	=33	=33	=33	=33	=33	=33	=33
1Im7	E:7	saw	saw	.	50.216	newline	voice	1E 1g# 1b 1dd#
.	.	her	her	c	.	.	.	.
=34	=34	=34	=34	=34	=34	=34	=34	=34
1V7	B:7	stand-	stand-	D	51.701	.	voice	1B 1dd# 1ff# 1aa
.	.	_	_	.	.	.	.	.
.	.	-ing	-ing	.	.	.	.	.
.	.	there	there	.	.	.	.	.
=35	=35	=35	=35	=35	=35	=35	=35	=35
1Im7	E:7	_	_	.	53.185	.	voice	1E 1g# 1b 1dd#
.	.	.	.	.	.	.	.	.
.	.	.	.	.	.	.	.	.
=36	=36	=36	=36	=36	=36	=36	=36	=36
1Im7	E:7	.	.	.	54.67	.	voice	1E 1g# 1b 1dd#
.	.	Well	Well	.	.	.	.	.
.	.	my	my	.	.	.	.	.
=37	=37	=37	=37	=37	=37	=37	=37	=37
*>Letter>B	*>Letter>B	*>Letter>B	*>Letter>B	*>Letter>B	*>Letter>B	*>Letter>B	*>Letter>B	*>Letter>B
*>Label>Chorus	*>Label>Chorus	*>Label>Chorus	*>Label>Chorus	*>Label>Chorus	*>Label>Chorus	*>Label>Chorus	*>Label>Chorus	*>Label>Chorus
1IVm7	A:7	heart	heart	.	56.154	newline	voice	1A 1cc# 1ee 1gg#
.	.	went	went	.	.	.	.	.
.	.	boom	boom	E	.	.	.	.
=38	=38	=38	=38	=38	=38	=38	=38	=38
1IVm7	A:7	_	_	.	57.658	.	voice	1A 1cc# 1ee 1gg#
.	.	.	.	.	.	.	.	.
.	.	When	When	.	.	.	.	.
.	.	I	I	.	.	.	.	.
=39	=39	=39	=39	=39	=39	=39	=39	=39
1IVm7	A:7	crossed	crossed	.	59.162	.	voice	1A 1cc# 1ee 1gg#
.	.	that	that	.	.	.	.	.
.	.	room	room	E	.	.	.	.
=40	=40	=40	=40	=40	=40	=40	=40	=40
1IVm7	A:7	_	_	.	60.666	.	voice	1A 1cc# 1ee 1gg#
.	.	.	.	.	.	.	.	.
.	.	And	And	.	.	.	.	.
.	.	I	I	.	.	.	.	.
=41	=41	=41	=41	=41	=41	=41	=41	=41
1IVm7	A:7	held	held	.	62.17	newline	voice	1A 1cc# 1ee 1gg#
.	.	her	her	C	.	.	.	.
.	.	hand	hand	D	.	.	.	.
=42	=42	=42	=42	=42	=42	=42	=42	=42
1IVm7	A:7	_	_	.	63.702	.	voice	1A 1cc# 1ee 1gg#
.	.	.	.	.	.	.	.	.
.	.	in	in	.	.	.	.	.
=43	=43	=43	=43	=43	=43	=43	=43	=43
1V7	B:7	mine	mine	F	65.233	.	voice	1B 1dd# 1ff# 1aa
.	.	_	_	.	.	.	.	.
=44	=44	=44	=44	=44	=44	=44	=44	=44
1V7	B:7	_	_	.	66.765	.	voice	1B 1dd# 1ff# 1aa
=45	=45	=45	=45	=45	=45	=45	=45	=45
1IVm7	A:7	_	_	.	68.296	newline	voice	1A 1cc# 1ee 1gg#
.	.	.	.	.	.	.	.	.
=46	=46	=46	=46	=46	=46	=46	=46	=46
1IVm7	A:7	_	.	.	69.781	.	voice	1A 1cc# 1ee 1gg#
.	.	Woah	.	.	.	.	.	.
.	.	we	.	.	.	.	.	.
.	.	danced	.	D	.	.	.	.
=47	=47	=47	=47	=47	=47	=47	=47	=47
*>Letter>A	*>Letter>A	*>Letter>A	*>Letter>A	*>Letter>A	*>Letter>A	*>Letter>A	*>Letter>A	*>Letter>A
*>Label>Verse	*>Label>Verse	*>Label>Verse	*>Label>Verse	*>Label>Verse	*>Label>Verse	*>Label>Verse	*>Label>Verse	*>Label>Verse
1Im7	E:7	_	.	.	71.266	newline	voice	1E 1g# 1b 1dd#
.	.	through	.	.	.	.	.	.
.	.	the	.	.	.	.	.	.
.	.	night	.	F	.	.	.	.
=48	=48	=48	=48	=48	=48	=48	=48	=48
1Im7	E:7	_	.	.	72.765	.	voice	1E 1g# 1b 1dd#
.	.	.	.	.	.	.	.	.
.	.	And	.	.	.	.	.	.
.	.	we	.	.	.	.	.	.
=49	=49	=49	=49	=49	=49	=49	=49	=49
1IVm7	A:7	held	.	.	74.265	.	voice	1A 1cc# 1ee 1gg#
.	.	each	.	.	.	.	.	.
.	.	o-	.	.	.	.	.	.
.	.	-ther	.	c	.	.	.	.
.	.	tight	.	F	.	.	.	.
=50	=50	=50	=50	=50	=50	=50	=50	=50
1Im7	E:7	_	.	.	75.764	.	voice	1E 1g# 1b 1dd#
.	.	.	.	.	.	.	.	.
.	.	And	.	.	.	.	.	.
.	.	be-	.	.	.	.	.	.
=51	=51	=51	=51	=51	=51	=51	=51	=51
1Im7	E:7	-fore	.	.	77.263	newline	voice	1E 1g# 1b 1dd#
.	.	too	.	.	.	.	.	.
.	.	long	.	.	.	.	.	.
.	.	.	.	.	.	.	.	.
.	.	I	.	.	.	.	.	.
=52	=52	=52	=52	=52	=52	=52	=52	=52
1Im7	E:7	_	.	.	78.779	.	voice	1E 1g# 1b 1dd#
.	.	fell	.	.	.	.	.	.
.	.	in	.	.	.	.	.	.
.	.	love	.	.	.	.	.	.
.	.	with	.	.	.	.	.	.
.	.	her	.	C	.	.	.	.
=53	=53	=53	=53	=53	=53	=53	=53	=53
1V7	B:7	_	.	.	80.294	.	voice	1B 1dd# 1ff# 1aa
.	.	_	.	.	.	.	.	.
.	.	_	.	.	.	.	.	.
.	.	.	.	.	.	.	.	.
=54	=54	=54	=54	=54	=54	=54	=54	=54
1V7	B:7	.	.	.	81.81	.	voice	1B 1dd# 1ff# 1aa
.	.	.	.	.	.	.	.	.
.	.	Now	.	.	.	.	.	.
=55	=55	=55	=55	=55	=55	=55	=55	=55
1Im7	E:7	I'll	I'll	.	83.325	newline	voice	1E 1g# 1b 1dd#
.	.	.	.	.	.	.	.	.
.	.	ne-	ne-	.	.	.	.	.
.	.	-ver	-ver	c	.	.	.	.
.	.	dance	dance	D	.	.	.	.
=56	=56	=56	=56	=56	=56	=56	=56	=56
1Im7b	E:7/3	_	_	.	84.819	.	voice	1e 1G# 1b 1dd#
.	.	.	.	.	.	.	.	.
.	.	with	with	.	.	.	.	.
.	.	a-	a-	.	.	.	.	.
.	.	-no-	-no-	.	.	.	.	.
=57	=57	=57	=57	=57	=57	=57	=57	=57
1IVm7	A:7	_	_	.	86.313	.	voice	1A 1cc# 1ee 1gg#
.	.	-ther	-ther	c	.	.	.	.
.	.	.	.	.	.	.	.	.
.	.	Wooh	Wooh	.	.	.	.	.
=58	=58	=58	=58	=58	=58	=58	=58	=58
1-VI	C:maj	_	_	.	87.807	.	voice	1C 1e 1g
.	.	_	_	.	.	.	.	.
.	.	Since	Since	.	.	.	.	.
.	.	I	I	.	.	.	.	.
=59	=59	=59	=59	=59	=59	=59	=59	=59
1Im7	E:7	saw	saw	.	89.3	newline	voice	1E 1g# 1b 1dd#
.	.	her	her	C	.	.	.	.
=60	=60	=60	=60	=60	=60	=60	=60	=60
1V7	B:7	stand-	stand-	D	90.788	.	voice	1B 1dd# 1ff# 1aa
.	.	_	_	.	.	.	.	.
.	.	-ing	-ing	.	.	.	.	.
.	.	there	there	.	.	.	.	.
=61	=61	=61	=61	=61	=61	=61	=61	=61
1Im7	E:7	_	_	.	92.275	.	voice	1E 1g# 1b 1dd#
.	.	.	.	.	.	.	.	.
.	.	.	.	.	.	.	.	.
=62	=62	=62	=62	=62	=62	=62	=62	=62
1V7	B:7	.	.	.	93.763	.	voice	1B 1dd# 1ff# 1aa
=63	=63	=63	=63	=63	=63	=63	=63	=63
*>Letter>A	*>Letter>A	*>Letter>A	*>Letter>A	*>Letter>A	*>Letter>A	*>Letter>A	*>Letter>A	*>Letter>A
*>Label>Instrumental	*>Label>Instrumental	*>Label>Instrumental	*>Label>Instrumental	*>Label>Instrumental	*>Label>Instrumental	*>Label>Instrumental	*>Label>Instrumental	*>Label>Instrumental
1Im7	E:7	.	.	.	95.25	newline	voice	1E 1g# 1b 1dd#
=64	=64	=64	=64	=64	=64	=64	=64	=64
1Im7	E:7	.	.	.	96.729	.	voice	1E 1g# 1b 1dd#
=65	=65	=65	=65	=65	=65	=65	=65	=65
1IVm7	A:7	.	.	.	98.209	.	voice	1A 1cc# 1ee 1gg#
=66	=66	=66	=66	=66	=66	=66	=66	=66
1Im7	E:7	.	.	.	99.688	.	voice	1E 1g# 1b 1dd#
=67	=67	=67	=67	=67	=67	=67	=67	=67
1Im7	E:7	.	.	.	101.168	newline	voice	1E 1g# 1b 1dd#
=68	=68	=68	=68	=68	=68	=68	=68	=68
1Im7	E:7	.	.	.	102.664	.	voice	1E 1g# 1b 1dd#
=69	=69	=69	=69	=69	=69	=69	=69	=69
1V7	B:7	.	.	.	104.161	.	voice	1B 1dd# 1ff# 1aa
=70	=70	=70	=70	=70	=70	=70	=70	=70
1V7	B:7	.	.	.	105.657	.	voice	1B 1dd# 1ff# 1aa
=71	=71	=71	=71	=71	=71	=71	=71	=71
1Im7	E:7	.	.	.	107.154	newline	voice	1E 1g# 1b 1dd#
=72	=72	=72	=72	=72	=72	=72	=72	=72
2Im7	E:7	.	.	.	108.666	.	voice	1E 1g# 1b 1dd#
2Im7b	E:7/3	.	.	.	109.422	.	voice	2e 2G# 2b 2dd#
=73	=73	=73	=73	=73	=73	=73	=73	=73
1IVm7	A:7	.	.	.	110.177	.	voice	1A 1cc# 1ee 1gg#
=74	=74	=74	=74	=74	=74	=74	=74	=74
1iv	A:min	.	.	.	111.689	.	voice	1A 1cc 1ee
=75	=75	=75	=75	=75	=75	=75	=75	=75
1Im7	E:7	.	.	.	113.201	newline	voice	1E 1g# 1b 1dd#
=76	=76	=76	=76	=76	=76	=76	=76	=76
1V7	B:7	.	.	.	114.675	.	voice	1B 1dd# 1ff# 1aa
=77	=77	=77	=77	=77	=77	=77	=77	=77
1Im7	E:7	.	.	.	116.149	.	voice	1E 1g# 1b 1dd#
=78	=78	=78	=78	=78	=78	=78	=78	=78
1Im7	E:7	.	.	.	117.623	.	voice	1E 1g# 1b 1dd#
.	.	Well	Well	.	.	.	.	.
.	.	my	my	.	.	.	.	.
=79	=79	=79	=79	=79	=79	=79	=79	=79
*>Letter>B	*>Letter>B	*>Letter>B	*>Letter>B	*>Letter>B	*>Letter>B	*>Letter>B	*>Letter>B	*>Letter>B
*>Label>Chorus	*>Label>Chorus	*>Label>Chorus	*>Label>Chorus	*>Label>Chorus	*>Label>Chorus	*>Label>Chorus	*>Label>Chorus	*>Label>Chorus
1IVm7	A:7	heart	heart	.	119.097	newline	voice	1A 1cc# 1ee 1gg#
.	.	went	went	.	.	.	.	.
.	.	boom	boom	E	.	.	.	.
=80	=80	=80	=80	=80	=80	=80	=80	=80
1IVm7	A:7	_	_	.	120.59	.	voice	1A 1cc# 1ee 1gg#
.	.	.	.	.	.	.	.	.
.	.	When	When	.	.	.	.	.
.	.	I	I	.	.	.	.	.
=81	=81	=81	=81	=81	=81	=81	=81	=81
1IVm7	A:7	crossed	crossed	.	122.084	.	voice	1A 1cc# 1ee 1gg#
.	.	that	that	.	.	.	.	.
.	.	room	room	E	.	.	.	.
=82	=82	=82	=82	=82	=82	=82	=82	=82
1IVm7	A:7	_	_	.	123.577	.	voice	1A 1cc# 1ee 1gg#
.	.	.	.	.	.	.	.	.
.	.	And	And	.	.	.	.	.
.	.	I	I	.	.	.	.	.
=83	=83	=83	=83	=83	=83	=83	=83	=83
1IVm7	A:7	held	held	.	125.071	newline	voice	1A 1cc# 1ee 1gg#
.	.	her	her	C	.	.	.	.
.	.	hand	hand	D	.	.	.	.
=84	=84	=84	=84	=84	=84	=84	=84	=84
1IVm7	A:7	_	_	.	126.587	.	voice	1A 1cc# 1ee 1gg#
.	.	.	.	.	.	.	.	.
.	.	in	in	.	.	.	.	.
=85	=85	=85	=85	=85	=85	=85	=85	=85
1V7	B:7	mine	mine	F	128.103	.	voice	1B 1dd# 1ff# 1aa
.	.	_	_	.	.	.	.	.
=86	=86	=86	=86	=86	=86	=86	=86	=86
1V7	B:7	_	_	.	129.618	.	voice	1B 1dd# 1ff# 1aa
=87	=87	=87	=87	=87	=87	=87	=87	=87
1IVm7	A:7	_	_	.	131.134	newline	voice	1A 1cc# 1ee 1gg#
=88	=88	=88	=88	=88	=88	=88	=88	=88
1IVm7	A:7	_	.	.	132.62	.	voice	1A 1cc# 1ee 1gg#
.	.	Whoa	.	.	.	.	.	.
.	.	we	.	.	.	.	.	.
=89	=89	=89	=89	=89	=89	=89	=89	=89
*>Letter>A	*>Letter>A	*>Letter>A	*>Letter>A	*>Letter>A	*>Letter>A	*>Letter>A	*>Letter>A	*>Letter>A
*>Label>Verse	*>Label>Verse	*>Label>Verse	*>Label>Verse	*>Label>Verse	*>Label>Verse	*>Label>Verse	*>Label>Verse	*>Label>Verse
1Im7	E:7	danced	.	D	134.106	newline	voice	1E 1g# 1b 1dd#
.	.	through	.	.	.	.	.	.
.	.	the	.	.	.	.	.	.
.	.	night	.	F	.	.	.	.
=90	=90	=90	=90	=90	=90	=90	=90	=90
1Im7	E:7	_	.	.	135.61	.	voice	1E 1g# 1b 1dd#
.	.	.	.	.	.	.	.	.
.	.	And	.	.	.	.	.	.
.	.	we	.	.	.	.	.	.
=91	=91	=91	=91	=91	=91	=91	=91	=91
1IVm7	A:7	held	.	.	137.114	.	voice	1A 1cc# 1ee 1gg#
.	.	each	.	.	.	.	.	.
.	.	o-	.	.	.	.	.	.
.	.	-ther	.	c	.	.	.	.
.	.	tight	.	F	.	.	.	.
=92	=92	=92	=92	=92	=92	=92	=92	=92
1Im7	E:7	_	.	.	138.618	.	voice	1E 1g# 1b 1dd#
.	.	.	.	.	.	.	.	.
.	.	and	.	.	.	.	.	.
.	.	be-	.	.	.	.	.	.
=93	=93	=93	=93	=93	=93	=93	=93	=93
1Im7	E:7	-fore	.	.	140.122	newline	voice	1E 1g# 1b 1dd#
.	.	too	.	.	.	.	.	.
.	.	long	.	.	.	.	.	.
.	.	.	.	.	.	.	.	.
.	.	I	.	.	.	.	.	.
=94	=94	=94	=94	=94	=94	=94	=94	=94
1Im7	E:7	_	.	.	141.628	.	voice	1E 1g# 1b 1dd#
.	.	fell	.	.	.	.	.	.
.	.	in	.	.	.	.	.	.
.	.	love	.	.	.	.	.	.
.	.	with	.	.	.	.	.	.
.	.	her	.	C	.	.	.	.
=95	=95	=95	=95	=95	=95	=95	=95	=95
1V7	B:7	_	.	.	143.134	.	voice	1B 1dd# 1ff# 1aa
.	.	_	.	.	.	.	.	.
.	.	_	.	.	.	.	.	.
.	.	.	.	.	.	.	.	.
=96	=96	=96	=96	=96	=96	=96	=96	=96
1V7	B:7	.	.	.	144.64	.	voice	1B 1dd# 1ff# 1aa
.	.	Now	.	.	.	.	.	.
=97	=97	=97	=97	=97	=97	=97	=97	=97
1Im7	E:7	I'll	I'll	.	146.145	newline	voice	1E 1g# 1b 1dd#
.	.	.	.	.	.	.	.	.
.	.	ne-	ne-	.	.	.	.	.
.	.	-ver	-ver	c	.	.	.	.
.	.	dance	dance	D	.	.	.	.
=98	=98	=98	=98	=98	=98	=98	=98	=98
1Im7b	E:7/3	_	_	.	147.639	.	voice	1e 1G# 1b 1dd#
.	.	.	.	.	.	.	.	.
.	.	with	with	.	.	.	.	.
.	.	a-	a-	.	.	.	.	.
.	.	-no-	-no-	.	.	.	.	.
=99	=99	=99	=99	=99	=99	=99	=99	=99
1IVm7	A:7	_	_	.	149.132	.	voice	1A 1cc# 1ee 1gg#
.	.	-ther	-ther	c	.	.	.	.
.	.	.	.	.	.	.	.	.
.	.	Wooh	Wooh	.	.	.	.	.
=100	=100	=100	=100	=100	=100	=100	=100	=100
1-VI	C:maj	_	_	.	150.625	.	voice	1C 1e 1g
.	.	_	_	.	.	.	.	.
.	.	Since	Since	.	.	.	.	.
.	.	I	I	.	.	.	.	.
=101	=101	=101	=101	=101	=101	=101	=101	=101
1Im7	E:7	saw	saw	.	152.118	newline	voice	1E 1g# 1b 1dd#
.	.	her	her	C	.	.	.	.
=102	=102	=102	=102	=102	=102	=102	=102	=102
1V7	B:7	stand-	stand-	D	153.629	.	voice	1B 1dd# 1ff# 1aa
.	.	_	_	.	.	.	.	.
.	.	-ing	-ing	.	.	.	.	.
.	.	there	there	.	.	.	.	.
=103	=103	=103	=103	=103	=103	=103	=103	=103
1Im7	E:7	_	_	.	155.14	.	voice	1E 1g# 1b 1dd#
.	.	.	.	.	.	.	.	.
.	.	.	.	.	.	.	.	.
=104	=104	=104	=104	=104	=104	=104	=104	=104
1Im7	E:7	.	.	.	156.652	.	voice	1E 1g# 1b 1dd#
.	.	Woah	.	.	.	.	.	.
.	.	since	.	.	.	.	.	.
.	.	I	.	.	.	.	.	.
=105	=105	=105	=105	=105	=105	=105	=105	=105
*>Letter>A	*>Letter>A	*>Letter>A	*>Letter>A	*>Letter>A	*>Letter>A	*>Letter>A	*>Letter>A	*>Letter>A
*>Label>Outro	*>Label>Outro	*>Label>Outro	*>Label>Outro	*>Label>Outro	*>Label>Outro	*>Label>Outro	*>Label>Outro	*>Label>Outro
1Im7	E:7	saw	saw	.	158.163	newline	voice	1E 1g# 1b 1dd#
.	.	her	her	C	.	.	.	.
=106	=106	=106	=106	=106	=106	=106	=106	=106
1V7	B:7	stand-	stand-	D	159.646	.	voice	1B 1dd# 1ff# 1aa
.	.	_	_	.	.	.	.	.
.	.	-ing	-ing	.	.	.	.	.
.	.	there	there	.	.	.	.	.
=107	=107	=107	=107	=107	=107	=107	=107	=107
1Im7	E:7	_	_	.	161.129	.	voice	1E 1g# 1b 1dd#
.	.	.	.	.	.	.	.	.
.	.	.	.	.	.	.	.	.
=108	=108	=108	=108	=108	=108	=108	=108	=108
1Im7	E:7	Yeah	.	.	162.613	.	voice	1E 1g# 1b 1dd#
.	.	well	.	.	.	.	.	.
.	.	since	.	.	.	.	.	.
.	.	I	.	.	.	.	.	.
=109	=109	=109	=109	=109	=109	=109	=109	=109
1Im7	E:7	saw	saw	.	164.096	newline	voice	1E 1g# 1b 1dd#
.	.	her	her	C	.	.	.	.
=110	=110	=110	=110	=110	=110	=110	=110	=110
1V7	B:7	stand-	stand-	D	165.58	.	voice	1B 1dd# 1ff# 1aa
.	.	-ing	-ing	.	.	.	.	.
.	.	there	there	.	.	.	.	.
=111	=111	=111	=111	=111	=111	=111	=111	=111
1IVm7	A:7	_	_	.	167.064	.	voice	1A 1cc# 1ee 1gg#
.	.	.	.	.	.	.	.	.
.	.	.	.	.	.	.	.	.
=112	=112	=112	=112	=112	=112	=112	=112	=112
1Im7	E:7	.	.	.	168.548	.	voice	1E 1g# 1b 1dd#
1r;	N	.	.	.	171.887	.	r	1r;
1r;	N	.	.	.	175.83	.	r	1r;
*-	*-	*-	*-	*-	*-	*-	*-	*-
!!!BillboardChartDate: 1964/02/15
!!!BillboardPeak: 14
!!!BillboardWeeksOnChart: 11
!!!COC: The Beatles
!!!ENC: Nathaniel Condit-Schultz
!!!EST: Awating manual error checking and editing.
!!!OTL: I Saw Her Standing There
!!!RDF**harte: Chris Harte's syntax, used by MIREX
!!!RDF**harmony: **recip + pitch class of root + harmonic quality
!!!RDF**leadinstrument: original McGill primary instrumentation annotation
!!!RDF**phrase: newline = linebreak in original McGill transcription
!!!RDF**timestamp: McGill audio timestamp in seconds
!!!RDT: 2017/01/12/
!!!SampleActualRank: 54
!!!SampleID#: 0853
!!!SampleTargetRank: 56
!!!MBID: da77d23c-3acb-4b3d-9596-24aa55f03ece
